lib/flags/m/BLR.svg

<svg xmlns="http://www.w3.org/2000/svg" fill="none" viewBox="0 0 20 15"><mask id="BLR_svg__a" width="20" height="15" x="0" y="0" mask-type="alpha" maskUnits="userSpaceOnUse"><path fill="#fff" d="M0 0H20V15H0z"/></mask><g mask="url(#BLR_svg__a)"><path fill="#73BE4A" fill-rule="evenodd" d="M0 0H20V15H0V0Z" clip-rule="evenodd"/><path fill="#AF0100" fill-rule="evenodd" d="M0 0V10H20V0H0Z" clip-rule="evenodd"/><path fill="#F7FCFF" d="M0 0H3.75V15H0z"/><path fill="#D0181A" fill-rule="evenodd" d="M0.624986 0C0.970191 0 1.24998 0.279844 1.24998 0.625012C1.24998 0.970181 0.970191 1.25003 0.624986 1.25003C0.27986 1.25003 0 0.970181 0 0.625012C0 0.279844 0.27986 0 0.624986 0ZM3.12504 0C3.47016 0 3.75002 0.279844 3.75002 0.625012C3.75002 0.970181 3.47016 1.25003 3.12504 1.25003C2.77983 1.25003 2.50004 0.970181 2.50004 0.625012C2.50004 0.279844 2.77983 0 3.12504 0ZM1.24998 3.12502C1.24998 2.7798 0.970191 2.50001 0.624986 2.50001C0.27986 2.50001 0 2.7798 0 3.12502C0 3.47019 0.27986 3.74998 0.624986 3.74998C0.970191 3.74998 1.24998 3.47019 1.24998 3.12502ZM3.12504 2.50001C3.47016 2.50001 3.75002 2.7798 3.75002 3.12502C3.75002 3.47019 3.47016 3.74998 3.12504 3.74998C2.77983 3.74998 2.50004 3.47019 2.50004 3.12502C2.50004 2.7798 2.77983 2.50001 3.12504 2.50001ZM3.12504 11.25C3.47016 11.25 3.75002 11.5298 3.75002 11.875C3.75002 12.2202 3.47016 12.5 3.12504 12.5C2.77983 12.5 2.50004 12.2202 2.50004 11.875C2.50004 11.5298 2.77983 11.25 3.12504 11.25ZM1.24998 11.875C1.24998 11.5298 0.970191 11.25 0.624986 11.25C0.27986 11.25 0 11.5298 0 11.875C0 12.2202 0.27986 12.5 0.624986 12.5C0.970191 12.5 1.24998 12.2202 1.24998 11.875ZM0.624986 13.75C0.970191 13.75 1.24998 14.0298 1.24998 14.375C1.24998 14.7202 0.970191 15 0.624986 15C0.27986 15 0 14.7202 0 14.375C0 14.0298 0.27986 13.75 0.624986 13.75ZM3.75002 14.375C3.75002 14.0298 3.47016 13.75 3.12504 13.75C2.77983 13.75 2.50004 14.0298 2.50004 14.375C2.50004 14.7202 2.77983 15 3.12504 15C3.47016 15 3.75002 14.7202 3.75002 14.375ZM1.87497 12.5C2.22017 12.5 2.50004 12.7798 2.50004 13.125C2.50004 13.4702 2.22017 13.75 1.87497 13.75C1.52985 13.75 1.24998 13.4702 1.24998 13.125C1.24998 12.7798 1.52985 12.5 1.87497 12.5ZM2.50004 1.875C2.50004 1.52983 2.22017 1.25003 1.87497 1.25003C1.52985 1.25003 1.24998 1.52983 1.24998 1.875C1.24998 2.22017 1.52985 2.50001 1.87497 2.50001C2.22017 2.50001 2.50004 2.22017 2.50004 1.875ZM2.56874 7.52419L3.75002 8.75001V9.99998L3.77737 10.058L1.93193 8.21109L0.273534 9.99998H0.000157356V8.75001L1.2391 7.5177L0.000157356 6.27774V5.00002H0.136281L1.91481 6.84561L3.702 5.06799L3.75002 5.00002V6.24996L2.56874 7.52419ZM1.87497 3.74998C2.22017 3.74998 2.50004 4.02984 2.50004 4.37499C2.50004 4.72016 2.22017 5.00002 1.87497 5.00002C1.52985 5.00002 1.24998 4.72016 1.24998 4.37499C1.24998 4.02984 1.52985 3.74998 1.87497 3.74998ZM2.50004 10.625C2.50004 10.2798 2.22017 9.99998 1.87497 9.99998C1.52985 9.99998 1.24998 10.2798 1.24998 10.625C1.24998 10.9702 1.52985 11.25 1.87497 11.25C2.22017 11.25 2.50004 10.9702 2.50004 10.625Z" clip-rule="evenodd"/><path fill="#8F181A" fill-rule="evenodd" d="M0 0H1.24998V1.25003H0V0ZM1.24998 2.50001H0V3.74998H1.24998V2.50001ZM0 5.00002H1.24998V6.24999H0V5.00002ZM1.24998 8.75001H0V9.99998H1.24998V8.75001ZM0 11.25H1.24998V12.5H0V11.25ZM1.24998 13.75H0V15H1.24998V13.75ZM3.75002 13.75H2.50004V15H3.75002V13.75ZM3.75002 0H2.50004V1.25003H3.75002V0Z" clip-rule="evenodd" opacity=".4"/></g></svg>

<svg xmlns="http://www.w3.org/2000/svg" fill="none" viewBox="0 0 20 15"><mask id="BLR_svg__a" width="20" height="15" x="0" y="0" maskUnits="userSpaceOnUse"><path fill="#fff" d="M0 0h20v15H0z"/></mask><g mask="url(#BLR_svg__a)"><path fill="#73BE4A" fill-rule="evenodd" d="M0 0h20v15H0V0z" clip-rule="evenodd"/><path fill="#AF0100" fill-rule="evenodd" d="M0 0v10h20V0H0z" clip-rule="evenodd"/><path fill="#F7FCFF" d="M0 0h3.75v15H0z"/><path fill="#D0181A" fill-rule="evenodd" d="M.625 0a.625.625 0 110 1.25.625.625 0 010-1.25zm2.5 0a.625.625 0 110 1.25.625.625 0 010-1.25zM1.25 3.125a.625.625 0 10-1.25 0 .625.625 0 001.25 0zM3.125 2.5a.625.625 0 110 1.25.625.625 0 010-1.25zm0 8.75a.625.625 0 110 1.25.625.625 0 010-1.25zm-1.875.625a.625.625 0 10-1.25 0 .625.625 0 001.25 0zM.625 13.75a.625.625 0 110 1.25.625.625 0 010-1.25zm3.125.625a.625.625 0 10-1.25 0 .625.625 0 001.25 0zM1.875 12.5a.625.625 0 110 1.25.625.625 0 010-1.25zM2.5 1.875a.625.625 0 10-1.25 0 .625.625 0 001.25 0zm.069 5.65L3.75 8.75V10l.027.058-1.845-1.847L.274 10H0V8.75l1.24-1.232L0 6.278V5h.136l1.779 1.846 1.787-1.778L3.75 5v1.25L2.569 7.524zM1.875 3.75a.625.625 0 110 1.25.625.625 0 010-1.25zm.625 6.875a.625.625 0 10-1.25 0 .625.625 0 001.25 0z" clip-rule="evenodd"/><path fill="#8F181A" fill-rule="evenodd" d="M0 0h1.25v1.25H0V0zm1.25 2.5H0v1.25h1.25V2.5zM0 5h1.25v1.25H0V5zm1.25 3.75H0V10h1.25V8.75zM0 11.25h1.25v1.25H0v-1.25zm1.25 2.5H0V15h1.25v-1.25zm2.5 0H2.5V15h1.25v-1.25zM3.75 0H2.5v1.25h1.25V0z" clip-rule="evenodd" opacity=".4"/></g></svg>
